apps/exrtool-gui/src-tauri/linear_to_srgb.cube
TITLE "exrtool 1D LUT"
LUT_1D_SIZE 1024
DOMAIN_MIN 0.0 0.0 0.0
DOMAIN_MAX 1.0 1.0 1.0
0.0000000000 0.0000000000 0.0000000000
0.0126295211 0.0126295211 0.0126295211
0.0252590422 0.0252590422 0.0252590422
0.0378885642 0.0378885642 0.0378885642
0.0497118756 0.0497118756 0.0497118756
0.0599145740 0.0599145740 0.0599145740
0.0689844713 0.0689844713 0.0689844713
0.0772092268 0.0772092268 0.0772092268
0.0847735927 0.0847735927 0.0847735927
0.0918042585 0.0918042585 0.0918042585
0.0983925536 0.0983925536 0.0983925536
0.1046067402 0.1046067402 0.1046067402
0.1104994193 0.1104994193 0.1104994193
0.1161120757 0.1161120757 0.1161120757
0.1214781627 0.1214781627 0.1214781627
0.1266250014 0.1266250014 0.1266250014
0.1315753460 0.1315753460 0.1315753460
0.1363483369 0.1363483369 0.1363483369
0.1409601867 0.1409601867 0.1409601867
0.1454248726 0.1454248726 0.1454248726
0.1497544944 0.1497544944 0.1497544944
0.1539596021 0.1539596021 0.1539596021
0.1580494344 0.1580494344 0.1580494344
0.1620322168 0.1620322168 0.1620322168
0.1659152210 0.1659152210 0.1659152210
0.1697049439 0.1697049439 0.1697049439
0.1734072268 0.1734072268 0.1734072268
0.1770273447 0.1770273447 0.1770273447
0.1805700660 0.1805700660 0.1805700660
0.1840397418 0.1840397418 0.1840397418
0.1874403059 0.1874403059 0.1874403059
0.1907753646 0.1907753646 0.1907753646
0.1940482259 0.1940482259 0.1940482259
0.1972619295 0.1972619295 0.1972619295
0.2004193664 0.2004193664 0.2004193664
0.2035230696 0.2035230696 0.2035230696
0.2065754533 0.2065754533 0.2065754533
0.2095787525 0.2095787525 0.2095787525
0.2125350833 0.2125350833 0.2125350833
0.2154463828 0.2154463828 0.2154463828
0.2183144391 0.2183144391 0.2183144391
0.2211409807 0.2211409807 0.2211409807
0.2239275873 0.2239275873 0.2239275873
0.2266757488 0.2266757488 0.2266757488
0.2293868661 0.2293868661 0.2293868661
0.2320622802 0.2320622802 0.2320622802
0.2347032726 0.2347032726 0.2347032726
0.2373109162 0.2373109162 0.2373109162
0.2398864031 0.2398864031 0.2398864031
0.2424308062 0.2424308062 0.2424308062
0.2449450791 0.2449450791 0.2449450791
0.2474302351 0.2474302351 0.2474302351
0.2498870492 0.2498870492 0.2498870492
0.2523165047 0.2523165047 0.2523165047
0.2547193468 0.2547193468 0.2547193468
0.2570963502 0.2570963502 0.2570963502
0.2594483197 0.2594483197 0.2594483197
0.2617758811 0.2617758811 0.2617758811
0.2640797496 0.2640797496 0.2640797496
0.2663605809 0.2663605809 0.2663605809
0.2686189711 0.2686189711 0.2686189711
0.2708554864 0.2708554864 0.2708554864
0.2730707228 0.2730707228 0.2730707228
0.2752652168 0.2752652168 0.2752652168
0.2774394751 0.2774394751 0.2774394751
0.2795940042 0.2795940042 0.2795940042
0.2817292809 0.2817292809 0.2817292809
0.2838457823 0.2838457823 0.2838457823
0.2859439552 0.2859439552 0.2859439552
0.2880241871 0.2880241871 0.2880241871
0.2900868654 0.2900868654 0.2900868654
0.2921324670 0.2921324670 0.2921324670
0.2941613495 0.2941613495 0.2941613495
0.2961738110 0.2961738110 0.2961738110
0.2981702685 0.2981702685 0.2981702685
0.3001510501 0.3001510501 0.3001510501
0.3021165133 0.3021165133 0.3021165133
0.3040669262 0.3040669262 0.3040669262
0.3060026169 0.3060026169 0.3060026169
0.3079238832 0.3079238832 0.3079238832
0.3098310232 0.3098310232 0.3098310232
0.3117243052 0.3117243052 0.3117243052
0.3136039674 0.3136039674 0.3136039674
0.3154703677 0.3154703677 0.3154703677
0.3173236549 0.3173236549 0.3173236549
0.3191641271 0.3191641271 0.3191641271
0.3209920228 0.3209920228 0.3209920228
0.3228075504 0.3228075504 0.3228075504
0.3246109188 0.3246109188 0.3246109188
0.3264023960 0.3264023960 0.3264023960
0.3281821907 0.3281821907 0.3281821907
0.3299504519 0.3299504519 0.3299504519
0.3317074478 0.3317074478 0.3317074478
0.3334532976 0.3334532976 0.3334532976
0.3351882696 0.3351882696 0.3351882696
0.3369124830 0.3369124830 0.3369124830
0.3386261463 0.3386261463 0.3386261463
0.3403294384 0.3403294384 0.3403294384
0.3420225084 0.3420225084 0.3420225084
0.3437055051 0.3437055051 0.3437055051
0.3453786671 0.3453786671 0.3453786671
0.3470420837 0.3470420837 0.3470420837
0.3486959040 0.3486959040 0.3486959040
0.3503402770 0.3503402770 0.3503402770
0.3519754112 0.3519754112 0.3519754112
0.3536013663 0.3536013663 0.3536013663
0.3552182913 0.3552182913 0.3552182913
0.3568263650 0.3568263650 0.3568263650
0.3584257364 0.3584257364 0.3584257364
0.3600164652 0.3600164652 0.3600164652
0.3615986705 0.3615986705 0.3615986705
0.3631725311 0.3631725311 0.3631725311
0.3647381365 0.3647381365 0.3647381365
0.3662956357 0.3662956357 0.3662956357
0.3678450584 0.3678450584 0.3678450584
0.3693866432 0.3693866432 0.3693866432
0.3709203899 0.3709203899 0.3709203899
0.3724464476 0.3724464476 0.3724464476
0.3739649057 0.3739649057 0.3739649057
0.3754759133 0.3754759133 0.3754759133
0.3769794703 0.3769794703 0.3769794703
0.3784757555 0.3784757555 0.3784757555
0.3799648583 0.3799648583 0.3799648583
0.3814468980 0.3814468980 0.3814468980
0.3829218745 0.3829218745 0.3829218745
0.3843899369 0.3843899369 0.3843899369
0.3858511746 0.3858511746 0.3858511746
0.3873056471 0.3873056471 0.3873056471
0.3887534738 0.3887534738 0.3887534738
0.3901946843 0.3901946843 0.3901946843
0.3916294277 0.3916294277 0.3916294277
0.3930577040 0.3930577040 0.3930577040
0.3944796920 0.3944796920 0.3944796920
0.3958953619 0.3958953619 0.3958953619
0.3973048627 0.3973048627 0.3973048627
0.3987082243 0.3987082243 0.3987082243
0.4001055658 0.4001055658 0.4001055658
0.4014969170 0.4014969170 0.4014969170
0.4028823376 0.4028823376 0.4028823376
0.4042618871 0.4042618871 0.4042618871
0.4056357443 0.4056357443 0.4056357443
0.4070038199 0.4070038199 0.4070038199
0.4083662629 0.4083662629 0.4083662629
0.4097231328 0.4097231328 0.4097231328
0.4110744298 0.4110744298 0.4110744298
0.4124203324 0.4124203324 0.4124203324
0.4137608111 0.4137608111 0.4137608111
0.4150959253 0.4150959253 0.4150959253
0.4164257348 0.4164257348 0.4164257348
0.4177503288 0.4177503288 0.4177503288
0.4190697968 0.4190697968 0.4190697968
0.4203841090 0.4203841090 0.4203841090
0.4216933548 0.4216933548 0.4216933548
0.4229975641 0.4229975641 0.4229975641
0.4242968261 0.4242968261 0.4242968261
0.4255911708 0.4255911708 0.4255911708
0.4268806875 0.4268806875 0.4268806875
0.4281653464 0.4281653464 0.4281653464
0.4294452667 0.4294452667 0.4294452667
0.4307204485 0.4307204485 0.4307204485
0.4319909811 0.4319909811 0.4319909811
0.4332568944 0.4332568944 0.4332568944
0.4345181882 0.4345181882 0.4345181882
0.4357750118 0.4357750118 0.4357750118
0.4370272756 0.4370272756 0.4370272756
0.4382751286 0.4382751286 0.4382751286
0.4395185709 0.4395185709 0.4395185709
0.4407576919 0.4407576919 0.4407576919
0.4419924617 0.4419924617 0.4419924617
0.4432229400 0.4432229400 0.4432229400
0.4444491863 0.4444491863 0.4444491863
0.4456712008 0.4456712008 0.4456712008
0.4468891025 0.4468891025 0.4468891025
0.4481028914 0.4481028914 0.4481028914
0.4493125677 0.4493125677 0.4493125677
0.4505181909 0.4505181909 0.4505181909
0.4517198205 0.4517198205 0.4517198205
0.4529174566 0.4529174566 0.4529174566
0.4541110992 0.4541110992 0.4541110992
0.4553009272 0.4553009272 0.4553009272
0.4564868212 0.4564868212 0.4564868212
0.4576689005 0.4576689005 0.4576689005
0.4588472247 0.4588472247 0.4588472247
0.4600217342 0.4600217342 0.4600217342
0.4611924887 0.4611924887 0.4611924887
0.4623595476 0.4623595476 0.4623595476
0.4635229707 0.4635229707 0.4635229707
0.4646826982 0.4646826982 0.4646826982
0.4658388495 0.4658388495 0.4658388495
0.4669913650 0.4669913650 0.4669913650
0.4681403637 0.4681403637 0.4681403637
0.4692859054 0.4692859054 0.4692859054
0.4704278708 0.4704278708 0.4704278708
0.4715663791 0.4715663791 0.4715663791
0.4727014899 0.4727014899 0.4727014899
0.4738331437 0.4738331437 0.4738331437
0.4749614596 0.4749614596 0.4749614596
0.4760864377 0.4760864377 0.4760864377
0.4772080183 0.4772080183 0.4772080183
0.4783263206 0.4783263206 0.4783263206
0.4794414043 0.4794414043 0.4794414043
0.4805532098 0.4805532098 0.4805532098
0.4816617370 0.4816617370 0.4816617370
0.4827671647 0.4827671647 0.4827671647
0.4838693738 0.4838693738 0.4838693738
0.4849684238 0.4849684238 0.4849684238
0.4860643744 0.4860643744 0.4860643744
0.4871572256 0.4871572256 0.4871572256
0.4882469773 0.4882469773 0.4882469773
0.4893336296 0.4893336296 0.4893336296
0.4904173613 0.4904173613 0.4904173613
0.4914979935 0.4914979935 0.4914979935
0.4925757051 0.4925757051 0.4925757051
0.4936504364 0.4936504364 0.4936504364
0.4947223067 0.4947223067 0.4947223067
0.4957911372 0.4957911372 0.4957911372
0.4968571663 0.4968571663 0.4968571663
0.4979202747 0.4979202747 0.4979202747
0.4989804626 0.4989804626 0.4989804626
0.5000379086 0.5000379086 0.5000379086
0.5010924935 0.5010924935 0.5010924935
0.5021443367 0.5021443367 0.5021443367
0.5031933784 0.5031933784 0.5031933784
0.5042396784 0.5042396784 0.5042396784
0.5052832365 0.5052832365 0.5052832365
0.5063240528 0.5063240528 0.5063240528
0.5073621869 0.5073621869 0.5073621869
0.5083976984 0.5083976984 0.5083976984
0.5094304681 0.5094304681 0.5094304681
0.5104606152 0.5104606152 0.5104606152
0.5114881992 0.5114881992 0.5114881992
0.5125131011 0.5125131011 0.5125131011
0.5135354996 0.5135354996 0.5135354996
0.5145552754 0.5145552754 0.5145552754
0.5155725479 0.5155725479 0.5155725479
0.5165872574 0.5165872574 0.5165872574
0.5175994635 0.5175994635 0.5175994635
0.5186091661 0.5186091661 0.5186091661
0.5196163654 0.5196163654 0.5196163654
0.5206211209 0.5206211209 0.5206211209
0.5216233730 0.5216233730 0.5216233730
0.5226233006 0.5226233006 0.5226233006
0.5236207247 0.5236207247 0.5236207247
0.5246158242 0.5246158242 0.5246158242
0.5256084800 0.5256084800 0.5256084800
0.5265987515 0.5265987515 0.5265987515
0.5275866985 0.5275866985 0.5275866985
0.5285722613 0.5285722613 0.5285722613
0.5295555592 0.5295555592 0.5295555592
0.5305365324 0.5305365324 0.5305365324
0.5315151811 0.5315151811 0.5315151811
0.5324915648 0.5324915648 0.5324915648
0.5334656835 0.5334656835 0.5334656835
0.5344375372 0.5344375372 0.5344375372
0.5354071856 0.5354071856 0.5354071856
0.5363745689 0.5363745689 0.5363745689
0.5373398066 0.5373398066 0.5373398066
0.5383027792 0.5383027792 0.5383027792
0.5392636061 0.5392636061 0.5392636061
0.5402222872 0.5402222872 0.5402222872
0.5411787033 0.5411787033 0.5411787033
0.5421330929 0.5421330929 0.5421330929
0.5430853367 0.5430853367 0.5430853367
0.5440353751 0.5440353751 0.5440353751
0.5449833870 0.5449833870 0.5449833870
0.5459292531 0.5459292531 0.5459292531
0.5468730927 0.5468730927 0.5468730927
0.5478148460 0.5478148460 0.5478148460
0.5487545133 0.5487545133 0.5487545133
0.5496921539 0.5496921539 0.5496921539
0.5506278276 0.5506278276 0.5506278276
0.5515614152 0.5515614152 0.5515614152
0.5524930358 0.5524930358 0.5524930358
0.5534226298 0.5534226298 0.5534226298
0.5543502569 0.5543502569 0.5543502569
0.5552759171 0.5552759171 0.5552759171
0.5561995506 0.5561995506 0.5561995506
0.5571212769 0.5571212769 0.5571212769
0.5580410957 0.5580410957 0.5580410957
0.5589590073 0.5589590073 0.5589590073
0.5598749518 0.5598749518 0.5598749518
0.5607889295 0.5607889295 0.5607889295
0.5617011189 0.5617011189 0.5617011189
0.5626113415 0.5626113415 0.5626113415
0.5635197759 0.5635197759 0.5635197759
0.5644262433 0.5644262433 0.5644262433
0.5653309226 0.5653309226 0.5653309226
0.5662337542 0.5662337542 0.5662337542
0.5671347380 0.5671347380 0.5671347380
0.5680339336 0.5680339336 0.5680339336
0.5689312816 0.5689312816 0.5689312816
0.5698268414 0.5698268414 0.5698268414
0.5707206130 0.5707206130 0.5707206130
0.5716125369 0.5716125369 0.5716125369
0.5725027919 0.5725027919 0.5725027919
0.5733911991 0.5733911991 0.5733911991
0.5742778778 0.5742778778 0.5742778778
0.5751628280 0.5751628280 0.5751628280
0.5760460496 0.5760460496 0.5760460496
0.5769274831 0.5769274831 0.5769274831
0.5778072476 0.5778072476 0.5778072476
0.5786852837 0.5786852837 0.5786852837
0.5795615911 0.5795615911 0.5795615911
0.5804362297 0.5804362297 0.5804362297
0.5813092589 0.5813092589 0.5813092589
0.5821805596 0.5821805596 0.5821805596
0.5830502510 0.5830502510 0.5830502510
0.5839182138 0.5839182138 0.5839182138
0.5847845674 0.5847845674 0.5847845674
0.5856491923 0.5856491923 0.5856491923
0.5865122676 0.5865122676 0.5865122676
0.5873736739 0.5873736739 0.5873736739
0.5882335305 0.5882335305 0.5882335305
0.5890917778 0.5890917778 0.5890917778
0.5899483562 0.5899483562 0.5899483562
0.5908033848 0.5908033848 0.5908033848
0.5916568041 0.5916568041 0.5916568041
0.5925087333 0.5925087333 0.5925087333
0.5933589935 0.5933589935 0.5933589935
0.5942078233 0.5942078233 0.5942078233
0.5950549841 0.5950549841 0.5950549841
0.5959005952 0.5959005952 0.5959005952
0.5967447758 0.5967447758 0.5967447758
0.5975873470 0.5975873470 0.5975873470
0.5984283686 0.5984283686 0.5984283686
0.5992679596 0.5992679596 0.5992679596
0.6001060009 0.6001060009 0.6001060009
0.6009425521 0.6009425521 0.6009425521
0.6017776728 0.6017776728 0.6017776728
0.6026112437 0.6026112437 0.6026112437
0.6034432650 0.6034432650 0.6034432650
0.6042739749 0.6042739749 0.6042739749
0.6051031351 0.6051031351 0.6051031351
0.6059308052 0.6059308052 0.6059308052
0.6067571044 0.6067571044 0.6067571044
0.6075819135 0.6075819135 0.6075819135
0.6084052920 0.6084052920 0.6084052920
0.6092272997 0.6092272997 0.6092272997
0.6100478172 0.6100478172 0.6100478172
0.6108669639 0.6108669639 0.6108669639
0.6116846800 0.6116846800 0.6116846800
0.6125010252 0.6125010252 0.6125010252
0.6133158803 0.6133158803 0.6133158803
0.6141294837 0.6141294837 0.6141294837
0.6149415970 0.6149415970 0.6149415970
0.6157523394 0.6157523394 0.6157523394
0.6165617704 0.6165617704 0.6165617704
0.6173698306 0.6173698306 0.6173698306
0.6181765199 0.6181765199 0.6181765199
0.6189818382 0.6189818382 0.6189818382
0.6197857857 0.6197857857 0.6197857857
0.6205884218 0.6205884218 0.6205884218
0.6213897467 0.6213897467 0.6213897467
0.6221897602 0.6221897602 0.6221897602
0.6229884028 0.6229884028 0.6229884028
0.6237857938 0.6237857938 0.6237857938
0.6245818138 0.6245818138 0.6245818138
0.6253765821 0.6253765821 0.6253765821
0.6261699796 0.6261699796 0.6261699796
0.6269621849 0.6269621849 0.6269621849
0.6277530193 0.6277530193 0.6277530193
0.6285426021 0.6285426021 0.6285426021
0.6293309331 0.6293309331 0.6293309331
0.6301179528 0.6301179528 0.6301179528
0.6309037209 0.6309037209 0.6309037209
0.6316882968 0.6316882968 0.6316882968
0.6324715018 0.6324715018 0.6324715018
0.6332535744 0.6332535744 0.6332535744
0.6340343356 0.6340343356 0.6340343356
0.6348138452 0.6348138452 0.6348138452
0.6355921626 0.6355921626 0.6355921626
0.6363692880 0.6363692880 0.6363692880
0.6371451020 0.6371451020 0.6371451020
0.6379197836 0.6379197836 0.6379197836
0.6386931539 0.6386931539 0.6386931539
0.6394654512 0.6394654512 0.6394654512
0.6402364373 0.6402364373 0.6402364373
0.6410062313 0.6410062313 0.6410062313
0.6417749524 0.6417749524 0.6417749524
0.6425423622 0.6425423622 0.6425423622
0.6433086395 0.6433086395 0.6433086395
0.6440737247 0.6440737247 0.6440737247
0.6448377371 0.6448377371 0.6448377371
0.6456004381 0.6456004381 0.6456004381
0.6463620663 0.6463620663 0.6463620663
0.6471225023 0.6471225023 0.6471225023
0.6478818059 0.6478818059 0.6478818059
0.6486399174 0.6486399174 0.6486399174
0.6493969560 0.6493969560 0.6493969560
0.6501528025 0.6501528025 0.6501528025
0.6509075761 0.6509075761 0.6509075761
0.6516612172 0.6516612172 0.6516612172
0.6524136662 0.6524136662 0.6524136662
0.6531650424 0.6531650424 0.6531650424
0.6539152861 0.6539152861 0.6539152861
0.6546643972 0.6546643972 0.6546643972
0.6554124951 0.6554124951 0.6554124951
0.6561594009 0.6561594009 0.6561594009
0.6569052339 0.6569052339 0.6569052339
0.6576499939 0.6576499939 0.6576499939
0.6583936810 0.6583936810 0.6583936810
0.6591362953 0.6591362953 0.6591362953
0.6598777175 0.6598777175 0.6598777175
0.6606181860 0.6606181860 0.6606181860
0.6613575816 0.6613575816 0.6613575816
0.6620957851 0.6620957851 0.6620957851
0.6628330350 0.6628330350 0.6628330350
0.6635692120 0.6635692120 0.6635692120
0.6643043160 0.6643043160 0.6643043160
0.6650383472 0.6650383472 0.6650383472
0.6657713652 0.6657713652 0.6657713652
0.6665033102 0.6665033102 0.6665033102
0.6672343016 0.6672343016 0.6672343016
0.6679641604 0.6679641604 0.6679641604
0.6686930060 0.6686930060 0.6686930060
0.6694208980 0.6694208980 0.6694208980
0.6701477170 0.6701477170 0.6701477170
0.6708735228 0.6708735228 0.6708735228
0.6715983152 0.6715983152 0.6715983152
0.6723220944 0.6723220944 0.6723220944
0.6730448604 0.6730448604 0.6730448604
0.6737666130 0.6737666130 0.6737666130
0.6744873524 0.6744873524 0.6744873524
0.6752071381 0.6752071381 0.6752071381
0.6759259105 0.6759259105 0.6759259105
0.6766436696 0.6766436696 0.6766436696
0.6773604751 0.6773604751 0.6773604751
0.6780763268 0.6780763268 0.6780763268
0.6787912250 0.6787912250 0.6787912250
0.6795050502 0.6795050502 0.6795050502
0.6802179813 0.6802179813 0.6802179813
0.6809298992 0.6809298992 0.6809298992
0.6816408634 0.6816408634 0.6816408634
0.6823508739 0.6823508739 0.6823508739
0.6830599308 0.6830599308 0.6830599308
0.6837680936 0.6837680936 0.6837680936
0.6844752431 0.6844752431 0.6844752431
0.6851814389 0.6851814389 0.6851814389
0.6858867407 0.6858867407 0.6858867407
0.6865910292 0.6865910292 0.6865910292
0.6872944236 0.6872944236 0.6872944236
0.6879968643 0.6879968643 0.6879968643
0.6886984110 0.6886984110 0.6886984110
0.6893990636 0.6893990636 0.6893990636
0.6900987625 0.6900987625 0.6900987625
0.6907975078 0.6907975078 0.6907975078
0.6914953589 0.6914953589 0.6914953589
0.6921923161 0.6921923161 0.6921923161
0.6928883791 0.6928883791 0.6928883791
0.6935834885 0.6935834885 0.6935834885
0.6942777038 0.6942777038 0.6942777038
0.6949710250 0.6949710250 0.6949710250
0.6956634521 0.6956634521 0.6956634521
0.6963549852 0.6963549852 0.6963549852
0.6970456243 0.6970456243 0.6970456243
0.6977353692 0.6977353692 0.6977353692
0.6984242797 0.6984242797 0.6984242797
0.6991122365 0.6991122365 0.6991122365
0.6997993588 0.6997993588 0.6997993588
0.7004856467 0.7004856467 0.7004856467
0.7011709809 0.7011709809 0.7011709809
0.7018555403 0.7018555403 0.7018555403
0.7025391459 0.7025391459 0.7025391459
0.7032219172 0.7032219172 0.7032219172
0.7039038539 0.7039038539 0.7039038539
0.7045848966 0.7045848966 0.7045848966
0.7052651048 0.7052651048 0.7052651048
0.7059444785 0.7059444785 0.7059444785
0.7066230178 0.7066230178 0.7066230178
0.7073006034 0.7073006034 0.7073006034
0.7079774141 0.7079774141 0.7079774141
0.7086533904 0.7086533904 0.7086533904
0.7093285918 0.7093285918 0.7093285918
0.7100028992 0.7100028992 0.7100028992
0.7106763721 0.7106763721 0.7106763721
0.7113490105 0.7113490105 0.7113490105
0.7120208144 0.7120208144 0.7120208144
0.7126918435 0.7126918435 0.7126918435
0.7133620381 0.7133620381 0.7133620381
0.7140313387 0.7140313387 0.7140313387
0.7146999240 0.7146999240 0.7146999240
0.7153676748 0.7153676748 0.7153676748
0.7160345316 0.7160345316 0.7160345316
0.7167006731 0.7167006731 0.7167006731
0.7173660398 0.7173660398 0.7173660398
0.7180305123 0.7180305123 0.7180305123
0.7186942697 0.7186942697 0.7186942697
0.7193571329 0.7193571329 0.7193571329
0.7200193405 0.7200193405 0.7200193405
0.7206806540 0.7206806540 0.7206806540
0.7213411927 0.7213411927 0.7213411927
0.7220009565 0.7220009565 0.7220009565
0.7226598859 0.7226598859 0.7226598859
0.7233181000 0.7233181000 0.7233181000
0.7239755392 0.7239755392 0.7239755392
0.7246321440 0.7246321440 0.7246321440
0.7252880931 0.7252880931 0.7252880931
0.7259431481 0.7259431481 0.7259431481
0.7265974879 0.7265974879 0.7265974879
0.7272510529 0.7272510529 0.7272510529
0.7279038429 0.7279038429 0.7279038429
0.7285559177 0.7285559177 0.7285559177
0.7292072177 0.7292072177 0.7292072177
0.7298577428 0.7298577428 0.7298577428
0.7305074930 0.7305074930 0.7305074930
0.7311565280 0.7311565280 0.7311565280
0.7318047881 0.7318047881 0.7318047881
0.7324522734 0.7324522734 0.7324522734
0.7330991030 0.7330991030 0.7330991030
0.7337450981 0.7337450981 0.7337450981
0.7343903780 0.7343903780 0.7343903780
0.7350349426 0.7350349426 0.7350349426
0.7356787920 0.7356787920 0.7356787920
0.7363218069 0.7363218069 0.7363218069
0.7369642258 0.7369642258 0.7369642258
0.7376058102 0.7376058102 0.7376058102
0.7382467389 0.7382467389 0.7382467389
0.7388869524 0.7388869524 0.7388869524
0.7395263910 0.7395263910 0.7395263910
0.7401651144 0.7401651144 0.7401651144
0.7408031225 0.7408031225 0.7408031225
0.7414404154 0.7414404154 0.7414404154
0.7420770526 0.7420770526 0.7420770526
0.7427129149 0.7427129149 0.7427129149
0.7433481216 0.7433481216 0.7433481216
0.7439825535 0.7439825535 0.7439825535
0.7446163297 0.7446163297 0.7446163297
0.7452493906 0.7452493906 0.7452493906
0.7458817363 0.7458817363 0.7458817363
0.7465133667 0.7465133667 0.7465133667
0.7471443415 0.7471443415 0.7471443415
0.7477746010 0.7477746010 0.7477746010
0.7484042048 0.7484042048 0.7484042048
0.7490330935 0.7490330935 0.7490330935
0.7496613264 0.7496613264 0.7496613264
0.7502887845 0.7502887845 0.7502887845
0.7509156466 0.7509156466 0.7509156466
0.7515417337 0.7515417337 0.7515417337
0.7521672249 0.7521672249 0.7521672249
0.7527920604 0.7527920604 0.7527920604
0.7534161806 0.7534161806 0.7534161806
0.7540395856 0.7540395856 0.7540395856
0.7546623945 0.7546623945 0.7546623945
0.7552844882 0.7552844882 0.7552844882
0.7559059262 0.7559059262 0.7559059262
0.7565266490 0.7565266490 0.7565266490
0.7571468353 0.7571468353 0.7571468353
0.7577662468 0.7577662468 0.7577662468
0.7583850026 0.7583850026 0.7583850026
0.7590031028 0.7590031028 0.7590031028
0.7596205473 0.7596205473 0.7596205473
0.7602373958 0.7602373958 0.7602373958
0.7608535886 0.7608535886 0.7608535886
0.7614690661 0.7614690661 0.7614690661
0.7620839477 0.7620839477 0.7620839477
0.7626981139 0.7626981139 0.7626981139
0.7633116841 0.7633116841 0.7633116841
0.7639245987 0.7639245987 0.7639245987
0.7645368576 0.7645368576 0.7645368576
0.7651485205 0.7651485205 0.7651485205
0.7657595277 0.7657595277 0.7657595277
0.7663699389 0.7663699389 0.7663699389
0.7669796348 0.7669796348 0.7669796348
0.7675887346 0.7675887346 0.7675887346
0.7681972384 0.7681972384 0.7681972384
0.7688050866 0.7688050866 0.7688050866
0.7694122791 0.7694122791 0.7694122791
0.7700188160 0.7700188160 0.7700188160
0.7706248164 0.7706248164 0.7706248164
0.7712301612 0.7712301612 0.7712301612
0.7718349099 0.7718349099 0.7718349099
0.7724389434 0.7724389434 0.7724389434
0.7730424404 0.7730424404 0.7730424404
0.7736453414 0.7736453414 0.7736453414
0.7742475867 0.7742475867 0.7742475867
0.7748492360 0.7748492360 0.7748492360
0.7754502892 0.7754502892 0.7754502892
0.7760506868 0.7760506868 0.7760506868
0.7766504884 0.7766504884 0.7766504884
0.7772497535 0.7772497535 0.7772497535
0.7778483033 0.7778483033 0.7778483033
0.7784463167 0.7784463167 0.7784463167
0.7790437937 0.7790437937 0.7790437937
0.7796405554 0.7796405554 0.7796405554
0.7802367806 0.7802367806 0.7802367806
0.7808324099 0.7808324099 0.7808324099
0.7814274430 0.7814274430 0.7814274430
0.7820218205 0.7820218205 0.7820218205
0.7826157212 0.7826157212 0.7826157212
0.7832089663 0.7832089663 0.7832089663
0.7838016152 0.7838016152 0.7838016152
0.7843936682 0.7843936682 0.7843936682
0.7849851847 0.7849851847 0.7849851847
0.7855761051 0.7855761051 0.7855761051
0.7861664891 0.7861664891 0.7861664891
0.7867561579 0.7867561579 0.7867561579
0.7873454094 0.7873454094 0.7873454094
0.7879339457 0.7879339457 0.7879339457
0.7885220051 0.7885220051 0.7885220051
0.7891094685 0.7891094685 0.7891094685
0.7896963358 0.7896963358 0.7896963358
0.7902826667 0.7902826667 0.7902826667
0.7908684015 0.7908684015 0.7908684015
0.7914535403 0.7914535403 0.7914535403
0.7920381427 0.7920381427 0.7920381427
0.7926222086 0.7926222086 0.7926222086
0.7932056785 0.7932056785 0.7932056785
0.7937886119 0.7937886119 0.7937886119
0.7943710089 0.7943710089 0.7943710089
0.7949527502 0.7949527502 0.7949527502
0.7955340743 0.7955340743 0.7955340743
0.7961147428 0.7961147428 0.7961147428
0.7966948748 0.7966948748 0.7966948748
